media/icon-file-type/svgs/google-form/16.svg

<svg width="16" height="16" viewBox="0 0 16 16"><path fill="#8270DB" fill-rule="evenodd" d="M2,0 L14,0 C15.1045695,-2.02906125e-16 16,0.8954305 16,2 L16,14 C16,15.1045695 15.1045695,16 14,16 L2,16 C0.8954305,16 1.3527075e-16,15.1045695 0,14 L0,2 C-1.3527075e-16,0.8954305 0.8954305,2.02906125e-16 2,0 Z M10.2865339,2.49987043 L6.22031607,2.54090174 L9.72808894,8.65413583 L13.7943068,8.61267261 L10.2865339,2.49987043 Z M2,9.33136849 L4.06809223,12.8540149 L7.5758651,6.74078081 L5.50777287,3.2181344 L2,9.33136849 Z M6.9843684,9.43675419 L4.98667201,13 L12.0022178,13 L13.9999142,9.43675419 L6.9843684,9.43675419 Z"/></svg>

<svg width="16" height="16" viewBox="0 0 16 16"><path fill="#673AB7" fill-rule="evenodd" d="M2 0h12a2 2 0 012 2v12a2 2 0 01-2 2H2a2 2 0 01-2-2V2a2 2 0 012-2zm8.287 2.5l-4.067.04 3.508 6.114 4.066-.041L10.287 2.5zM2 9.33l2.068 3.523L7.576 6.74 5.508 3.217 2 9.331zm4.984.106L4.987 13h7.015L14 9.437H6.984z"/></svg>
